X:1
P:Old Joe's Jig
C:Traditional
M:6/8    %(3/4, 4/4, 6/8)
L:1/8    %(1/8, 1/4)
V:1 clef=treble
K:D    %(D, C)
|:(e
|f)"D"AA AFA|"G"BAF "D"A2 (A|"G"B)dB "D"AFA|"Bm"Bcd "A"efg
|"D"fAA AFA|"G"BAF "D"A2 (A|"G"B)dB "D"AFA|"G"Bd"A"c "D"d2:||
|:(e
|"D"f)af "A"efe|"D"dBAd2 (e|f)aa afe|faa "G"b2 (a
|"D"f)af "A"efe|"D"dBAd2 (e|f)AA AFA|"G"Bd "A"c"D"d2:||

